X:1
T:The Connaught Man's Ramble  "Arranged by Tommy Tully"
M:6/8
L:1/8
Q:80
C:Traditional Irish
S:Jig
K:HP
|: A|
{g}G{d}A{e}A{g}dA{d}A|
{g}B{d}A{e}A{g}dA{d}A|
{g}G{d}A{e}A{g}Afe|  !
{g}dB{G}B{gBd}B2A{g}G{d}A{e}A{g}dA{d}A|
{g}B{d}A{e}A{g}def|
{a}gag{a}fef|  !
{g}dB{G}B{gBd}B2:| |:
e|
{g}fa{g}afa{g}a|
fef{Gdc}d2e|  !
{g}fa{g}afa{g}a|
fed{gef}e3{g}fa{g}afa{g}a|
fef{g}def|  !
{a}gag{a}fef|
{g}dB{G}B{gBd}B2:|

